X: 82
T: Castle Kelly
S: Bernie Waugh
N: page 28
N: heptatonic
R: Reel
M: 4/4
L: 1/8
K: Ador
"Am"~A2cA "F"~A2cA|"Em"GBEG G2EG|"Am"~A2cA "Em"GAcd|\
"F"egdB cAAE| "Am"~A2cA "F" A2cA| "Em"GcEG G2EG|
"Am"A2cA "Em"GAcd|"F"egdB cAA2||\
 "Dm"age^c d2ed|"G"cAGE G3e| "Dm"age^c "G"d2=cd|
"A"eaab a2ba| "Em"ged^c d2ed|"F"cAGE G2EG|"Am"A2cA "Em"GAcd|"Am"egdB cAA2|
